public/avatar/item1/4.svg

<svg xmlns:xlink="http://www.w3.org/1999/xlink" height="65.4" width="80.15" xmlns="http://www.w3.org/2000/svg"><use height="18.5" transform="translate(18.15 32.35)" width="30.15" xlink:href="#a"/><defs><g id="a" fill-rule="evenodd"><path d="m16.45 18.55.25 2-.95 2.8q-1.45 3.1-3.9 4.7L3.1 33.4l-1.15 1.35q-3.4 2.45-6.25 2.3-1.2-.05-1.75-.5l-.35-.5q-1.6.25-3.75-.05-1.45-.2-2.5-1.1-.9-.8-.8-1.45.1-.55 1.1-1.15l.95-.5 2.65-1.05.5-1.05q.1-.75 2-1.9t3.55-1.45l3.45.2 15.7-8" fill="#2b0302" transform="translate(13.45 -18.55)"/><path d="m16 19.4-.2 2.25q-1 2.9-3.4 4.9-2.35 2-9.3 5.85-3.45 1.95-6.6 2.5l-4.85.35q-2.3.15-3.45-.9l-.75-1.05q9.65-3.95 14.75-6.45 5.15-2.5 13.8-7.45" fill="#4f270c" transform="translate(13.45 -18.55)"/><path d="m.85 29.6 1.25 1.2 1.25 2.05-2.25 1.5.1-.35.6-1.4-.95-3" fill="#2b0302" transform="translate(13.45 -18.55)"/><path d="M2.05 33.2q-.5.85-3.15 2.05-2.8 1.25-3.8.75-1.15-.55-2.1-2.65-1-2.15-.45-3.45.3-.75 2.95-1.75 2.55-1 3.5-.95.9.05 2.2 2.65 1.25 2.6.85 3.35" fill="#d4e2e4" transform="translate(13.45 -18.55)"/><path d="M-6 30.85q.25-.4 2.25-1.3 2-.85 2.5-.85.45.05 1.1 1.85.7 1.75.45 2.15-.2.35-2.15 1.05l-2.45.45q-.45-.2-1.15-1.6-.75-1.4-.55-1.75" fill="#4f270c" transform="translate(13.45 -18.55)"/><path d="M.6 31.1-3 32.55l-.4-.8 3.45-1.9.55 1.25" fill="#d4e2e4" transform="translate(13.45 -18.55)"/><path d="m-12.55 33.3 4.85-2 .2 1.1-3.8 1.2-1.25-.3m26.6-11.55-9.5 5.15L.8 28.55l-.7-.7 8-3.95q2.5-1.25 7.9-4.5l-1.95 2.35" fill="#8a591d" transform="translate(13.45 -18.55)"/><path d="M-7.55 31.55q-.15-1.35.45-2 1.65-1.65 4.6-2.2 1.1-.2 1.75 0l.6.4q-2.45.2-3.9.8-2.4 1-3.5 3m7.85.4.8 1-1 .95q-1.65.95-4.1 1.15-.85.05-1-.75l.05-.8 1.15.5q1 0 3.3-1.1.95-.45.8-.95m.2-2.5.15.65L-3.3 32l-.3-.5 4.1-2.05" fill="#f7ffff" transform="translate(13.45 -18.55)"/><path d="m.1 31.25 1.1-.3-.9 1.3-.2-1" fill="#59777b" transform="translate(13.45 -18.55)"/><path d="m-5.5 32.4-.5-1.55 2.25-1.2 2.5-.95q.45.1.7.9l-.4-.1H-2.2l-2.7 1.25-.6 1.65" transform="translate(13.45 -18.55)"/></g></defs></svg>

<?xml version="1.0" encoding="UTF-8" standalone="no"?>
<svg xmlns:xlink="http://www.w3.org/1999/xlink" height="65.4px" width="80.15px" xmlns="http://www.w3.org/2000/svg">
  <g transform="matrix(1.0, 0.0, 0.0, 1.0, 31.6, 13.8)">
    <use height="18.5" transform="matrix(1.0, 0.0, 0.0, 1.0, -13.45, 18.55)" width="30.15" xlink:href="#shape0"/>
  </g>
  <defs>
    <g id="shape0" transform="matrix(1.0, 0.0, 0.0, 1.0, 13.45, -18.55)">
      <path d="M16.45 18.55 L16.7 20.55 15.75 23.35 Q14.3 26.45 11.85 28.05 L3.1 33.4 1.95 34.75 Q-1.45 37.2 -4.3 37.05 -5.5 37.0 -6.05 36.55 L-6.4 36.05 Q-8.0 36.3 -10.15 36.0 -11.6 35.8 -12.65 34.9 -13.55 34.1 -13.45 33.45 -13.35 32.9 -12.35 32.3 L-11.4 31.8 -8.75 30.75 -8.25 29.7 Q-8.15 28.95 -6.25 27.8 -4.35 26.65 -2.7 26.35 L0.75 26.55 16.45 18.55" fill="#2b0302" fill-rule="evenodd" stroke="none"/>
      <path d="M16.0 19.4 L15.8 21.65 Q14.8 24.55 12.4 26.55 10.05 28.55 3.1 32.4 -0.35 34.35 -3.5 34.9 L-8.35 35.25 Q-10.65 35.4 -11.8 34.35 L-12.55 33.3 Q-2.9 29.35 2.2 26.85 7.35 24.35 16.0 19.4" fill="#4f270c" fill-rule="evenodd" stroke="none"/>
      <path d="M0.85 29.6 L2.1 30.8 3.35 32.85 1.1 34.35 1.2 34.0 1.8 32.6 0.85 29.6" fill="#2b0302" fill-rule="evenodd" stroke="none"/>
      <path d="M2.05 33.2 Q1.55 34.05 -1.1 35.25 -3.9 36.5 -4.9 36.0 -6.05 35.45 -7.0 33.35 -8.0 31.2 -7.45 29.9 -7.15 29.15 -4.5 28.15 -1.95 27.15 -1.0 27.2 -0.1 27.25 1.2 29.85 2.45 32.45 2.05 33.2" fill="#d4e2e4" fill-rule="evenodd" stroke="none"/>
      <path d="M-6.0 30.85 Q-5.75 30.45 -3.75 29.55 -1.75 28.7 -1.25 28.7 -0.8 28.75 -0.15 30.55 0.55 32.3 0.3 32.7 0.1 33.05 -1.85 33.75 L-4.3 34.2 Q-4.75 34.0 -5.45 32.6 -6.2 31.2 -6.0 30.85" fill="#4f270c" fill-rule="evenodd" stroke="none"/>
      <path d="M0.6 31.1 L-3.0 32.55 -3.4 31.75 0.05 29.85 0.6 31.1" fill="#d4e2e4" fill-rule="evenodd" stroke="none"/>
      <path d="M-12.55 33.3 L-7.7 31.3 -7.5 32.4 -11.3 33.6 -12.55 33.3" fill="#8a591d" fill-rule="evenodd" stroke="none"/>
      <path d="M14.05 21.75 L4.55 26.9 0.8 28.55 0.1 27.85 8.1 23.9 Q10.6 22.65 16.0 19.4 L14.05 21.75" fill="#8a591d" fill-rule="evenodd" stroke="none"/>
      <path d="M-7.55 31.55 Q-7.7 30.2 -7.1 29.55 -5.45 27.9 -2.5 27.35 -1.4 27.15 -0.75 27.35 L-0.15 27.75 Q-2.6 27.95 -4.05 28.55 -6.45 29.55 -7.55 31.55" fill="#f7ffff" fill-rule="evenodd" stroke="none"/>
      <path d="M0.3 31.95 L1.1 32.95 0.1 33.9 Q-1.55 34.85 -4.0 35.05 -4.85 35.1 -5.0 34.3 L-4.95 33.5 -3.8 34.0 Q-2.8 34.0 -0.5 32.9 0.45 32.45 0.3 31.95" fill="#f7ffff" fill-rule="evenodd" stroke="none"/>
      <path d="M0.5 29.45 L0.65 30.1 -3.3 32.0 -3.6 31.5 0.5 29.45" fill="#f7ffff" fill-rule="evenodd" stroke="none"/>
      <path d="M0.1 31.25 L1.2 30.95 0.3 32.25 0.1 31.25" fill="#59777b" fill-rule="evenodd" stroke="none"/>
      <path d="M-5.5 32.4 L-6.0 30.85 -3.75 29.65 -1.25 28.7 Q-0.8 28.8 -0.55 29.6 L-0.95 29.5 -2.2 29.5 -4.9 30.75 -5.5 32.4" fill="#000000" fill-rule="evenodd" stroke="none"/>
    </g>
  </defs>
</svg>
